packages/icons/src/fossa-inverse.svg

<svg xmlns="http://www.w3.org/2000/svg" viewBox="0 0 286 284" enable-background="new 0 0 286 284" xml:space="preserve">
<path fill="#fff" opacity="1.000000" stroke="none" 
	d="
M287.000000,150.000000 
	C287.000000,194.966965 287.000000,239.933914 287.000000,284.950439 
	C191.769730,284.950439 96.539429,284.950439 1.000000,284.950439 
	C1.000000,226.979477 1.000000,168.958389 1.362696,110.401268 
	C2.170774,109.055725 2.781958,108.295181 3.037549,107.429642 
	C11.852935,77.576866 28.011063,52.658871 52.851212,33.666931 
	C86.162987,8.197874 123.747459,-0.975828 164.852936,6.298050 
	C200.577682,12.619772 229.758652,30.650145 251.922470,59.511963 
	C268.052582,80.516586 277.630127,104.227776 280.018250,130.708282 
	C280.579865,136.935623 281.023376,143.173615 281.515259,149.332306 
	C281.939087,149.549698 282.221222,149.809082 282.518250,149.827438 
	C284.010010,149.919586 285.505707,149.948730 287.000000,150.000000 
M221.963287,40.522152 
	C188.876480,15.448646 151.984955,6.821721 111.253082,15.032934 
	C41.315598,29.131756 -6.138191,101.088806 8.420096,170.888809 
	C23.452639,242.962646 88.888008,288.364319 161.506744,277.106476 
	C223.771423,267.453796 272.293488,211.774292 272.934235,148.785004 
	C273.380737,104.889519 256.386597,68.926125 221.963287,40.522152 
z"/>
<path fill="#fff" opacity="1.000000" stroke="none" 
	d="
M287.000000,149.531342 
	C285.505707,149.948730 284.010010,149.919586 282.518250,149.827438 
	C282.221222,149.809082 281.939087,149.549698 281.515259,149.332306 
	C281.023376,143.173615 280.579865,136.935623 280.018250,130.708282 
	C277.630127,104.227776 268.052582,80.516586 251.922470,59.511963 
	C229.758652,30.650145 200.577682,12.619772 164.852936,6.298050 
	C123.747459,-0.975828 86.162987,8.197874 52.851212,33.666931 
	C28.011063,52.658871 11.852935,77.576866 3.037549,107.429642 
	C2.781958,108.295181 2.170774,109.055725 1.362696,109.932610 
	C1.000000,73.695908 1.000000,37.391811 1.000000,1.043857 
	C96.227356,1.043857 191.454742,1.043857 287.000000,1.043857 
	C287.000000,50.353771 287.000000,99.708229 287.000000,149.531342 
z"/>
<path fill="#fff" opacity="1.000000" stroke="none" 
	d="
M222.245071,40.739811 
	C256.386597,68.926125 273.380737,104.889519 272.934235,148.785004 
	C272.293488,211.774292 223.771423,267.453796 161.506744,277.106476 
	C88.888008,288.364319 23.452639,242.962646 8.420096,170.888809 
	C-6.138191,101.088806 41.315598,29.131756 111.253082,15.032934 
	C151.984955,6.821721 188.876480,15.448646 222.245071,40.739811 
M93.081520,140.774246 
	C92.889389,141.922806 92.626541,143.064621 92.516602,144.221008 
	C91.806541,151.689774 96.044807,158.668732 102.565735,160.826706 
	C109.244843,163.037018 116.848991,160.701752 120.337708,155.368881 
	C125.528557,147.434082 123.342751,135.701981 115.991364,131.511917 
	C108.627426,127.314674 96.728310,128.987732 93.081520,140.774246 
M143.538254,161.139252 
	C148.262634,159.805725 151.761185,157.224503 151.740280,151.868439 
	C151.719559,146.556137 147.669098,144.685944 143.481689,143.116486 
	C143.015869,142.941879 142.459122,142.907318 142.077820,142.626694 
	C139.898605,141.022949 135.020111,141.818924 136.185593,137.596054 
	C136.503174,136.445389 141.854279,135.556396 144.294922,136.363297 
	C148.821045,137.859711 149.538239,135.974182 149.980637,131.038239 
	C145.122665,130.644730 140.444794,129.724808 135.860519,130.065262 
	C132.177582,130.338776 129.686340,133.194275 129.189972,137.126465 
	C128.673645,141.216660 130.258942,144.273102 134.072403,146.028183 
	C135.427582,146.651855 136.872482,147.092255 138.192902,147.777313 
	C140.734848,149.096100 145.807831,148.631592 144.569214,152.971878 
	C143.402802,157.059143 138.991791,155.140640 135.816147,154.917419 
	C135.494171,154.894791 135.159485,154.769424 134.869553,154.617554 
	C130.374130,152.262466 129.501450,154.891617 129.009720,159.641739 
	C133.756927,160.212357 138.265656,160.754303 143.538254,161.139252 
M179.906586,153.985992 
	C180.871002,148.309860 177.822968,145.260742 172.964172,143.417923 
	C170.945618,142.652344 168.757507,142.190674 166.932404,141.108612 
	C165.723343,140.391769 165.022125,138.818344 164.093567,137.628403 
	C165.468079,136.941437 166.851791,135.669144 168.215164,135.690582 
	C170.969513,135.733871 173.712814,136.479721 176.866165,137.003128 
	C177.471252,135.455460 178.082809,133.891220 178.915085,131.762466 
	C174.897446,130.881042 171.553192,129.826431 168.136551,129.474609 
	C163.268219,128.973282 158.747482,132.162323 157.740784,136.265961 
	C156.608154,140.882919 158.719376,144.564880 163.936844,146.792191 
	C166.066956,147.701523 168.454483,148.094788 170.439743,149.224121 
	C171.642838,149.908539 172.299759,151.553055 173.202072,152.766235 
	C171.932343,153.634125 170.645294,155.252487 169.396225,155.223694 
	C166.154999,155.148941 162.930466,154.349579 159.332703,153.781525 
	C158.645706,155.122528 157.862640,156.651031 157.079987,158.178741 
	C167.803238,163.606003 175.198914,162.378967 179.906586,153.985992 
M213.154053,159.942688 
	C208.608017,149.787811 204.061981,139.632919 199.515945,129.478043 
	C199.009995,129.570984 198.504059,129.663925 197.998123,129.756866 
	C193.391037,139.984955 188.783951,150.213043 184.151260,160.498001 
	C188.767868,161.908447 191.935928,161.326843 193.148819,156.337097 
	C194.084045,152.489700 197.462112,153.815781 199.796570,154.002228 
	C201.563293,154.143326 204.337265,155.302811 204.728607,156.594940 
	C206.161423,161.325958 209.026184,161.889847 213.154053,159.942688 
M66.011772,153.421112 
	C66.011772,155.859085 66.011772,158.297043 66.011772,161.103424 
	C68.411484,160.995117 70.137360,160.917221 72.423409,160.814041 
	C72.423409,156.588882 72.423409,152.860931 72.423409,148.700592 
	C76.447548,148.700592 79.885971,148.700592 83.480606,148.700592 
	C83.480606,146.562469 83.480606,144.894180 83.480606,142.849152 
	C79.613968,142.849152 76.174675,142.849152 72.531509,142.849152 
	C72.531509,140.412689 72.531509,138.363098 72.531509,135.774750 
	C77.441147,135.774750 82.027931,135.774750 86.859283,135.774750 
	C86.859283,133.659958 86.859283,132.086151 86.859283,130.276062 
	C79.896294,130.276062 73.179497,130.276062 66.011719,130.276062 
	C66.011719,137.871033 66.011719,145.157471 66.011772,153.421112 
z"/>
<path fill="#fff" opacity="1.000000" stroke="none" 
	d="
M93.157913,140.389099 
	C96.728310,128.987732 108.627426,127.314674 115.991364,131.511917 
	C123.342751,135.701981 125.528557,147.434082 120.337708,155.368881 
	C116.848991,160.701752 109.244843,163.037018 102.565735,160.826706 
	C96.044807,158.668732 91.806541,151.689774 92.516602,144.221008 
	C92.626541,143.064621 92.889389,141.922806 93.157913,140.389099 
M106.090942,155.532089 
	C112.938766,155.753586 116.457718,152.714767 116.958939,146.146957 
	C117.374214,140.705444 113.735382,135.862991 108.846222,135.350784 
	C104.433128,134.888458 100.690727,137.431976 99.387177,141.779617 
	C97.598259,147.746063 99.780807,152.707108 106.090942,155.532089 
z"/>
<path fill="#fff" opacity="1.000000" stroke="none" 
	d="
M143.156311,161.217743 
	C138.265656,160.754303 133.756927,160.212357 129.009720,159.641739 
	C129.501450,154.891617 130.374130,152.262466 134.869553,154.617554 
	C135.159485,154.769424 135.494171,154.894791 135.816147,154.917419 
	C138.991791,155.140640 143.402802,157.059143 144.569214,152.971878 
	C145.807831,148.631592 140.734848,149.096100 138.192902,147.777313 
	C136.872482,147.092255 135.427582,146.651855 134.072403,146.028183 
	C130.258942,144.273102 128.673645,141.216660 129.189972,137.126465 
	C129.686340,133.194275 132.177582,130.338776 135.860519,130.065262 
	C140.444794,129.724808 145.122665,130.644730 149.980637,131.038239 
	C149.538239,135.974182 148.821045,137.859711 144.294922,136.363297 
	C141.854279,135.556396 136.503174,136.445389 136.185593,137.596054 
	C135.020111,141.818924 139.898605,141.022949 142.077820,142.626694 
	C142.459122,142.907318 143.015869,142.941879 143.481689,143.116486 
	C147.669098,144.685944 151.719559,146.556137 151.740280,151.868439 
	C151.761185,157.224503 148.262634,159.805725 143.156311,161.217743 
z"/>
<path fill="#fff" opacity="1.000000" stroke="none" 
	d="
M179.827988,154.377045 
	C175.198914,162.378967 167.803238,163.606003 157.079987,158.178741 
	C157.862640,156.651031 158.645706,155.122528 159.332703,153.781525 
	C162.930466,154.349579 166.154999,155.148941 169.396225,155.223694 
	C170.645294,155.252487 171.932343,153.634125 173.202072,152.766235 
	C172.299759,151.553055 171.642838,149.908539 170.439743,149.224121 
	C168.454483,148.094788 166.066956,147.701523 163.936844,146.792191 
	C158.719376,144.564880 156.608154,140.882919 157.740784,136.265961 
	C158.747482,132.162323 163.268219,128.973282 168.136551,129.474609 
	C171.553192,129.826431 174.897446,130.881042 178.915085,131.762466 
	C178.082809,133.891220 177.471252,135.455460 176.866165,137.003128 
	C173.712814,136.479721 170.969513,135.733871 168.215164,135.690582 
	C166.851791,135.669144 165.468079,136.941437 164.093567,137.628387 
	C165.022125,138.818344 165.723343,140.391769 166.932404,141.108612 
	C168.757507,142.190674 170.945618,142.652344 172.964172,143.417923 
	C177.822968,145.260742 180.871002,148.309860 179.827988,154.377045 
z"/>
<path fill="#fff" opacity="1.000000" stroke="none" 
	d="
M213.106018,160.303192 
	C209.026184,161.889847 206.161423,161.325958 204.728607,156.594940 
	C204.337265,155.302811 201.563293,154.143326 199.796570,154.002228 
	C197.462112,153.815781 194.084045,152.489700 193.148819,156.337097 
	C191.935928,161.326843 188.767868,161.908447 184.151260,160.498001 
	C188.783951,150.213043 193.391037,139.984955 197.998123,129.756866 
	C198.504059,129.663925 199.009995,129.570984 199.515945,129.478043 
	C204.061981,139.632919 208.608017,149.787811 213.106018,160.303192 
z"/>
<path fill="#fff" opacity="1.000000" stroke="none" 
	d="
M66.011749,152.932495 
	C66.011719,145.157471 66.011719,137.871033 66.011719,130.276062 
	C73.179497,130.276062 79.896294,130.276062 86.859283,130.276062 
	C86.859283,132.086151 86.859283,133.659958 86.859283,135.774750 
	C82.027931,135.774750 77.441147,135.774750 72.531509,135.774750 
	C72.531509,138.363098 72.531509,140.412689 72.531509,142.849152 
	C76.174675,142.849152 79.613968,142.849152 83.480606,142.849152 
	C83.480606,144.894180 83.480606,146.562469 83.480606,148.700592 
	C79.885971,148.700592 76.447548,148.700592 72.423409,148.700592 
	C72.423409,152.860931 72.423409,156.588882 72.423409,160.814041 
	C70.137360,160.917221 68.411484,160.995117 66.011772,161.103424 
	C66.011772,158.297043 66.011772,155.859085 66.011749,152.932495 
z"/>
<path fill="#fff" opacity="1.000000" stroke="none" 
	d="
M105.718124,155.427460 
	C99.780807,152.707108 97.598259,147.746063 99.387177,141.779617 
	C100.690727,137.431976 104.433128,134.888458 108.846222,135.350784 
	C113.735382,135.862991 117.374214,140.705444 116.958939,146.146957 
	C116.457718,152.714767 112.938766,155.753586 105.718124,155.427460 
z"/>
</svg>

<svg xmlns="http://www.w3.org/2000/svg" viewBox="0 0 286 284" width="40" height="40">
<path fill="#fff" d="M222.245 40.74c34.142 28.186 51.136 64.15 50.69 108.045-.642 62.99-49.164 118.669-111.428 128.321C88.888 288.364 23.453 242.963 8.42 170.89c-14.558-69.8 32.896-141.757 102.833-155.856 40.732-8.211 77.623.416 110.992 25.707M93.082 140.774c-.193 1.149-.455 2.29-.565 3.447-.71 7.469 3.528 14.448 10.049 16.606 6.679 2.21 14.283-.125 17.772-5.458 5.19-7.935 3.005-19.667-4.347-23.857-7.364-4.197-19.263-2.524-22.91 9.262m50.457 20.365c4.725-1.333 8.223-3.914 8.202-9.27-.02-5.313-4.07-7.183-8.258-8.753-.466-.174-1.023-.209-1.404-.49-2.18-1.603-7.058-.807-5.892-5.03.317-1.15 5.668-2.04 8.109-1.233 4.526 1.497 5.243-.389 5.686-5.325-4.858-.393-9.536-1.313-14.12-.973-3.683.274-6.175 3.13-6.671 7.061-.516 4.09 1.069 7.147 4.882 8.902 1.356.624 2.8 1.064 4.12 1.75 2.543 1.318 7.616.854 6.377 5.194-1.166 4.087-5.577 2.169-8.753 1.945-.322-.022-.657-.148-.946-.3-4.496-2.355-5.369.275-5.86 5.025 4.747.57 9.256 1.112 14.528 1.497m36.369-7.153c.964-5.676-2.084-8.725-6.943-10.568-2.018-.766-4.206-1.227-6.032-2.31-1.209-.716-1.91-2.29-2.838-3.48 1.374-.687 2.758-1.959 4.121-1.937 2.755.043 5.498.789 8.651 1.312l2.05-5.24c-4.019-.882-7.363-1.937-10.78-2.288-4.868-.502-9.389 2.687-10.395 6.791-1.133 4.617.978 8.299 6.196 10.526 2.13.91 4.517 1.303 6.503 2.432 1.203.685 1.86 2.33 2.762 3.542-1.27.868-2.557 2.486-3.806 2.458-3.241-.075-6.466-.874-10.063-1.442l-2.253 4.397c10.723 5.427 18.119 4.2 22.827-4.193m33.247 5.957l-13.638-30.465-1.518.279-13.847 30.741c4.617 1.41 7.785.829 8.998-4.16.935-3.848 4.313-2.522 6.648-2.336 1.766.141 4.54 1.3 4.932 2.593 1.432 4.731 4.297 5.295 8.425 3.348M66.012 153.42v7.682l6.411-.289v-12.113h11.058v-5.852H72.53v-7.074H86.86v-5.499H66.012v23.145z" />
<path fill="#509c71" d="M93.158 140.39c3.57-11.402 15.47-13.075 22.833-8.878 7.352 4.19 9.538 15.922 4.347 23.857-3.489 5.333-11.093 7.668-17.772 5.458-6.521-2.158-10.76-9.137-10.05-16.606.11-1.156.373-2.298.642-3.832m12.933 15.143c6.848.222 10.367-2.817 10.868-9.385.415-5.442-3.224-10.284-8.113-10.796-4.413-.463-8.155 2.081-9.459 6.429-1.789 5.966.394 10.927 6.704 13.752z" />
<path fill="#509c71" d="M143.156 161.218c-4.89-.464-9.4-1.006-14.146-1.576.491-4.75 1.364-7.38 5.86-5.024.29.151.624.277.946.3 3.176.223 7.587 2.141 8.753-1.946 1.239-4.34-3.834-3.876-6.376-5.195-1.32-.685-2.765-1.125-4.12-1.749-3.814-1.755-5.4-4.811-4.883-8.902.496-3.932 2.988-6.787 6.67-7.06 4.585-.341 9.263.579 14.12.972-.442 4.936-1.159 6.822-5.685 5.325-2.44-.807-7.792.082-8.11 1.233-1.165 4.223 3.714 3.427 5.893 5.03.381.281.938.316 1.404.49 4.187 1.57 8.238 3.44 8.258 8.752.021 5.357-3.477 7.938-8.584 9.35zM179.828 154.377c-4.63 8.002-12.025 9.229-22.748 3.802l2.253-4.397c3.597.568 6.822 1.367 10.063 1.442 1.25.028 2.536-1.59 3.806-2.458-.902-1.213-1.56-2.857-2.762-3.542-1.986-1.13-4.373-1.522-6.503-2.432-5.218-2.227-7.329-5.91-6.196-10.526 1.006-4.104 5.527-7.293 10.396-6.791 3.416.351 6.76 1.406 10.778 2.287l-2.049 5.241c-3.153-.523-5.896-1.27-8.65-1.312-1.364-.022-2.748 1.25-4.122 1.937.928 1.19 1.63 2.764 2.838 3.48 1.826 1.083 4.014 1.544 6.032 2.31 4.859 1.843 7.907 4.892 6.864 10.959z" />
<path fill="#509c71" d="M213.106 160.303c-4.08 1.587-6.945 1.023-8.377-3.708-.392-1.292-3.166-2.452-4.932-2.593-2.335-.186-5.713-1.512-6.648 2.335-1.213 4.99-4.381 5.571-8.998 4.161l13.847-30.741 1.518-.279c4.546 10.155 9.092 20.31 13.59 30.825z" />
<path fill="#509c71" d="M66.012 152.932v-22.656h20.847v5.499H72.532v7.074H83.48v5.852H72.423v12.113l-6.411.29v-8.172z" />
<path fill="#fff" d="M105.718 155.427c-5.937-2.72-8.12-7.68-6.33-13.647 1.303-4.348 5.045-6.892 9.458-6.43 4.89.513 8.528 5.355 8.113 10.797-.501 6.568-4.02 9.607-11.24 9.28z" /></svg>
